build/images/icons/basket.svg

<svg width="30" height="23" viewBox="0 0 30 23" fill="none" xmlns="http://www.w3.org/2000/svg">
<path d="M29.999 0L29.0703 2.5H26.659L22.3165 17.5H5.76777L-0.000976562 3.75H21.014L20.309 6.25H3.75902L7.43027 15H20.4653L24.7553 0H29.999ZM10.624 18.75C9.58902 18.75 8.74902 19.59 8.74902 20.625C8.74902 21.6612 9.58902 22.5 10.624 22.5C11.659 22.5 12.499 21.6612 12.499 20.625C12.499 19.59 11.659 18.75 10.624 18.75ZM19.249 10L16.874 18.75C15.839 18.75 14.999 19.5888 14.999 20.625C14.999 21.6612 15.839 22.5 16.874 22.5C17.909 22.5 18.749 21.6612 18.749 20.625C18.749 19.59 17.909 18.75 16.874 18.75L19.249 10Z" fill="#2F3035"/>
</svg>

<svg width="30" height="23" fill="none" xmlns="http://www.w3.org/2000/svg"><path d="M29.999 0l-.929 2.5h-2.41l-4.342 15H5.767L0 3.75h21.015l-.705 2.5H3.759L7.43 15h13.035l4.29-15H30zM10.624 18.75a1.876 1.876 0 10.001 3.751 1.876 1.876 0 00-.001-3.751zM19.249 10l-2.375 8.75a1.875 1.875 0 100 3.75 1.875 1.875 0 000-3.75L19.249 10z" fill="#2F3035"/></svg>
